X: 1
T: Paddy Fahey's #25
M: 4/4
L: 1/8
R: reel
K: Cmaj
|:GF|Ez CD EFGA|~_B3G ~c3d|ecBd cBGF|FDB,D G2 GF|
F2 EF DEFD|~B3G ~c3d|ecBd cBGF|FDB,D C2:|
EF|:Gc ~c2 egde|c_BGA  _B2 GF|EC ~C2 C2 EF|GccA  _BGF2|
Gc ~c2 egde|eBGA _B2 df|ec=Bd c_BGF |ECB,D [1 C2 EF:| [2 C4:||
